X:1
T:Calkin, 66.66.88
T:Calkin, 66.66.88
T:John Baptiste Calkin, 1887
T:Public Domain Courtesy of the Cyber Hymnal™
C:John Baptiste Calkin, 1887
Z:Public Domain
Z:Courtesy of the Cyber Hymnal™
%%score ( 1 2 ) ( 3 4 )
L:1/8
Q:1/4=115
M:4/4
K:Db
V:1 treble 
V:2 treble 
V:3 bass 
V:4 bass 
V:1
 [DF]2 | [DF]2 [CE]2 [B,D]2 [CE]2 | [DF]6 [DF]2 | [DA]2 [CG]2 [CF]2 [CG]2 | [DA]6 [^DA]2 | %5
 [DB]2 [DB]2 [Ce]2 [Ec]2 | [EA]2 [DA]2 [Dd]2 [DB]2 | [A,G]4 F4 | [CE]6 [EA]2 | %9
 [Ee]2 [Ac]2 [Ad]2 [Ac]2 | [GB]2 [FA]2 [EG]2 [DF]2 | [DE]2 [DB]2 [B,G]2 [B,E]2 | [A,D]4 [CE]4 | %13
 D6 |] %14
V:2
 x2 | x8 | x8 | x8 | x8 | x8 | x8 | x4 (D2 B,2) | x8 | x8 | x8 | x8 | x8 | D6 |] %14
V:3
 [D,A,]2 | [D,A,]2 [D,G,]2 [D,G,]2 [D,G,]2 | [D,F,]6 [D,A,]2 | [F,A,]2 [E,A,]2 [E,A,]2 [E,A,]2 | %4
 [F,D]6 [F,C]2 | [G,B,]2 [G,B,]2 [G,A,]2 [G,A,]2 | [F,A,]2 [F,A,]2 [B,,A,]2 [B,,G,]2 | %7
 [C,E,]4 (A,2 =G,2) | [A,,A,]6 [A,C]2 | [G,C]2 [G,E]2 [F,D]2 [F,D]2 | %10
 [G,D]2 [=D,B,]2 [E,B,]2 [F,A,]2 | [G,B,]2 [G,,E,]2 [G,,E,]2 [G,,G,]2 | [A,,F,]4 [A,,G,]4 | %13
 [D,F,]6 |] %14
V:4
 x2 | x8 | x8 | x8 | x8 | x8 | x8 | x4 D,4 | x8 | x8 | x8 | x8 | x8 | x6 |] %14

